!!!OTL: GUDEN ABEND SPELMANN
!!!ARE: Europa, Mitteleuropa, Deutschland, Bergisches Land, Langenberg
!!!SCT: E0983
!!!YEM: Copyright 1995, estate of Helmut Schaffrath.
**kern
*ICvox
*Ivox
*M3/8
*k[f#]
*G:
{16d
16d
=1
8b
8b
8a
=2
4g}
{8d
=3
8b
8b
8b
=4
4g}
{16g
16g
=5
8b
8b
8a
=6
8g
8g}
{16g
16g
=7
8b
8b
8a
=8
4g}
{8b
=9
8dd
8dd
8dd
=10
8ee
8ee}
{8cc
=11
8cc
8cc
8ee
=12
4dd}
{8cc
=13
8b
8b
8b
=14
8dd
8dd}
{8b
=15
8a
8a
8a
=16
4g}
==
!!!AGN: Tanz - Lied, Reigen
!!!ONB: ESAC (Essen Associative Code) Database: ERK2
!!!AMT: simple triple
!!!AIN: vox
!!!EED: Helmut Schaffrath
!!!EEV: 1.0
*-
